X:662
T:Lik-låten
R:Marsch
O:Torsåker, Gästrikland
S:efter Hammarbergs-Hans
M:2/4
Q:1/4=70
L:1/16
K:Gm
G3/A/BA G3/A/BA|G3/A/Bc d2d2|G3/A/BG A3D|
G3/A/BA G3/A/BA|G3/A/Bc d2d2|[1D6D2:|[2D6g2|:
d4A3B|c2dc B2dc|A4D3/^F/AF|D3/^F/AF A2c2|c2dc B2dc|
A2^FG ABcB|G3^F F2D2|D3D ^F2G2|A2c2 BAG^F|[1G6B2|d2f2:|[2G8|]

(:musicend:)

(:music:)
